src/assets/svgs/stars.svg

<svg width="112" height="20" viewBox="0 0 112 20" fill="none" xmlns="http://www.w3.org/2000/svg">
<path d="M20 7.23929C20 6.79179 19.6368 6.42857 19.1893 6.42857H12.8571L10.7629 0.538571C10.6479 0.215714 10.3425 0 10 0C9.6575 0 9.35214 0.215714 9.23714 0.538571L7.14286 6.42857H0.810714C0.363214 6.42857 0 6.79179 0 7.23929C0 7.48 0.106786 7.70821 0.291429 7.86214L5 11.7857L2.88964 18.9746C2.86821 19.0479 2.85714 19.1236 2.85714 19.2C2.85714 19.6418 3.21571 20 3.65786 20C3.83321 20 4.00429 19.9421 4.14357 19.8354L10 15.3571L15.8561 19.8354C15.9957 19.9421 16.1668 20 16.3421 20C16.7843 20 17.1429 19.6418 17.1429 19.2C17.1429 19.1236 17.1318 19.0479 17.1104 18.9746L15 11.7857L19.7086 7.86214C19.8932 7.70821 20 7.47964 20 7.23929Z" fill="#FFBA43"/>
<path d="M43 7.23929C43 6.79179 42.6368 6.42857 42.1893 6.42857H35.8571L33.7629 0.538571C33.6479 0.215714 33.3425 0 33 0C32.6575 0 32.3521 0.215714 32.2371 0.538571L30.1429 6.42857H23.8107C23.3632 6.42857 23 6.79179 23 7.23929C23 7.48 23.1068 7.70821 23.2914 7.86214L28 11.7857L25.8896 18.9746C25.8682 19.0479 25.8571 19.1236 25.8571 19.2C25.8571 19.6418 26.2157 20 26.6579 20C26.8332 20 27.0043 19.9421 27.1436 19.8354L33 15.3571L38.8561 19.8354C38.9957 19.9421 39.1668 20 39.3421 20C39.7843 20 40.1429 19.6418 40.1429 19.2C40.1429 19.1236 40.1318 19.0479 40.1104 18.9746L38 11.7857L42.7086 7.86214C42.8932 7.70821 43 7.47964 43 7.23929Z" fill="#FFBA43"/>
<path d="M66 7.23929C66 6.79179 65.6368 6.42857 65.1893 6.42857H58.8571L56.7629 0.538571C56.6479 0.215714 56.3425 0 56 0C55.6575 0 55.3521 0.215714 55.2371 0.538571L53.1429 6.42857H46.8107C46.3632 6.42857 46 6.79179 46 7.23929C46 7.48 46.1068 7.70821 46.2914 7.86214L51 11.7857L48.8896 18.9746C48.8682 19.0479 48.8571 19.1236 48.8571 19.2C48.8571 19.6418 49.2157 20 49.6579 20C49.8332 20 50.0043 19.9421 50.1436 19.8354L56 15.3571L61.8561 19.8354C61.9957 19.9421 62.1668 20 62.3421 20C62.7843 20 63.1429 19.6418 63.1429 19.2C63.1429 19.1236 63.1318 19.0479 63.1104 18.9746L61 11.7857L65.7086 7.86214C65.8932 7.70821 66 7.47964 66 7.23929Z" fill="#FFBA43"/>
<path d="M89 7.23929C89 6.79179 88.6368 6.42857 88.1893 6.42857H81.8571L79.7629 0.538571C79.6479 0.215714 79.3425 0 79 0C78.6575 0 78.3521 0.215714 78.2371 0.538571L76.1429 6.42857H69.8107C69.3632 6.42857 69 6.79179 69 7.23929C69 7.48 69.1068 7.70821 69.2914 7.86214L74 11.7857L71.8896 18.9746C71.8682 19.0479 71.8571 19.1236 71.8571 19.2C71.8571 19.6418 72.2157 20 72.6579 20C72.8332 20 73.0043 19.9421 73.1436 19.8354L79 15.3571L84.8561 19.8354C84.9957 19.9421 85.1668 20 85.3421 20C85.7843 20 86.1429 19.6418 86.1429 19.2C86.1429 19.1236 86.1318 19.0479 86.1104 18.9746L84 11.7857L88.7086 7.86214C88.8932 7.70821 89 7.47964 89 7.23929Z" fill="#FFBA43"/>
<path d="M112 7.23929C112 6.79179 111.637 6.42857 111.189 6.42857H104.857L102.763 0.538571C102.648 0.215714 102.343 0 102 0C101.658 0 101.352 0.215714 101.237 0.538571L99.1429 6.42857H92.8107C92.3632 6.42857 92 6.79179 92 7.23929C92 7.48 92.1068 7.70821 92.2914 7.86214L97 11.7857L94.8896 18.9746C94.8682 19.0479 94.8571 19.1236 94.8571 19.2C94.8571 19.6418 95.2157 20 95.6579 20C95.8332 20 96.0043 19.9421 96.1436 19.8354L102 15.3571L107.856 19.8354C107.996 19.9421 108.167 20 108.342 20C108.784 20 109.143 19.6418 109.143 19.2C109.143 19.1236 109.132 19.0479 109.11 18.9746L107 11.7857L111.709 7.86214C111.893 7.70821 112 7.47964 112 7.23929Z" fill="#FFBA43"/>
</svg>

<svg width="112" height="20" fill="none" xmlns="http://www.w3.org/2000/svg"><path d="M20 7.24a.811.811 0 0 0-.81-.811h-6.333L10.763.539a.81.81 0 0 0-1.526 0l-2.094 5.89H.81a.811.811 0 0 0-.52 1.433L5 11.786l-2.11 7.189a.8.8 0 0 0 1.254.86L10 15.357l5.856 4.478a.801.801 0 0 0 1.254-.86L15 11.785l4.709-3.923A.812.812 0 0 0 20 7.24ZM43 7.24a.811.811 0 0 0-.81-.811h-6.333L33.763.539a.81.81 0 0 0-1.526 0l-2.094 5.89H23.81a.811.811 0 0 0-.52 1.433L28 11.786l-2.11 7.189a.8.8 0 0 0 1.254.86L33 15.357l5.856 4.478a.801.801 0 0 0 1.254-.86L38 11.785l4.709-3.923A.812.812 0 0 0 43 7.24ZM66 7.24a.811.811 0 0 0-.81-.811h-6.333L56.763.539a.81.81 0 0 0-1.526 0l-2.094 5.89H46.81a.811.811 0 0 0-.52 1.433L51 11.786l-2.11 7.189a.8.8 0 0 0 1.254.86L56 15.357l5.856 4.478a.801.801 0 0 0 1.254-.86L61 11.785l4.709-3.923A.812.812 0 0 0 66 7.24ZM89 7.24a.811.811 0 0 0-.81-.811h-6.333L79.763.539a.81.81 0 0 0-1.526 0l-2.094 5.89H69.81a.811.811 0 0 0-.52 1.433L74 11.786l-2.11 7.189a.8.8 0 0 0 1.254.86L79 15.357l5.856 4.478a.801.801 0 0 0 1.254-.86L84 11.785l4.709-3.923A.812.812 0 0 0 89 7.24ZM112 7.24a.811.811 0 0 0-.811-.811h-6.332l-2.094-5.89a.81.81 0 0 0-1.526 0l-2.094 5.89H92.81a.811.811 0 0 0-.52 1.433L97 11.786l-2.11 7.189a.8.8 0 0 0 1.254.86L102 15.357l5.856 4.478a.8.8 0 0 0 1.254-.86l-2.11-7.19 4.709-3.923A.813.813 0 0 0 112 7.24Z" fill="#FFBA43"/></svg>
